Resources/Public/Backend/Icons/ctype/denacharts_chart_pie.svg

<svg xmlns="http://www.w3.org/2000/svg" width="16" height="16" viewBox="0 0 16 16"><path d="M.912,4.594A7.771,7.771,0,0,0,7.243,16V8.576Z"/><path d="M16,8.245a7.717,7.717,0,0,0-.922-3.668l-6.345,4V16A7.779,7.779,0,0,0,16,8.245Z"/><path d="M7.977,0A7.8,7.8,0,0,0,1.6,3.291L7.971,7.41,14.36,3.3A7.8,7.8,0,0,0,7.977,0Z"/></svg>

<svg viewBox="0 0 16 16" xmlns="http://www.w3.org/2000/svg"><path d="m.91 4.59a7.78 7.78 0 0 0 6.33 11.41v-7.42z"/><path d="m16 8.24a7.67 7.67 0 0 0 -.92-3.66l-6.35 4v7.42a7.79 7.79 0 0 0 7.27-7.76z"/><path d="m8 0a7.81 7.81 0 0 0 -6.4 3.29l6.4 4.12 6.36-4.11a7.81 7.81 0 0 0 -6.36-3.3z"/></svg>
